icons/svg/subway/subway_italy_brescia.svg

<?xml version="1.0" encoding="UTF-8" standalone="no"?>
<svg
   xmlns:dc="http://purl.org/dc/elements/1.1/"
   xmlns:cc="http://creativecommons.org/ns#"
   xmlns:rdf="http://www.w3.org/1999/02/22-rdf-syntax-ns#"
   xmlns:svg="http://www.w3.org/2000/svg"
   xmlns="http://www.w3.org/2000/svg"
   xmlns:xlink="http://www.w3.org/1999/xlink"
   xmlns:sodipodi="http://sodipodi.sourceforge.net/DTD/sodipodi-0.dtd"
   xmlns:inkscape="http://www.inkscape.org/namespaces/inkscape"
   width="16"
   height="16"
   id="svg2"
   version="1.1"
   inkscape:version="0.91 r"
   sodipodi:docname="subway_brescia.svg">
  <defs
     id="defs13">
    <linearGradient
       gradientUnits="userSpaceOnUse"
       id="l1-2"
       y2="1.2385538"
       x2="87.260849"
       y1="121.69753"
       x1="87.101639"
       gradientTransform="matrix(0.08400469,0,0,0.08400469,0.8422306,2.0814238)">
      <stop
         id="stop5725"
         offset="0"
         style="stop-color:#e92203;stop-opacity:1" />
      <stop
         id="stop5727"
         offset="1"
         style="stop-color:#ff0000;stop-opacity:0.64628822" />
    </linearGradient>
    <linearGradient
       gradientTransform="matrix(0.08596979,0,0,0.08596979,0.67480439,1.9432845)"
       x1="87.101639"
       y1="121.69753"
       x2="87.260849"
       y2="1.2385538"
       id="l1"
       gradientUnits="userSpaceOnUse">
      <stop
         style="stop-color:#000e28;stop-opacity:1"
         offset="0"
         id="stop5" />
      <stop
         style="stop-color:#008cb9;stop-opacity:1"
         offset="1"
         id="stop7" />
    </linearGradient>
    <linearGradient
       gradientTransform="matrix(0.08400469,0,0,0.08400469,0.8422306,2.0814238)"
       x1="87.101639"
       y1="121.69753"
       x2="87.260849"
       y2="1.2385538"
       id="linearGradient5729"
       gradientUnits="userSpaceOnUse">
      <stop
         style="stop-color:#e92203;stop-opacity:1"
         offset="0"
         id="stop5-8" />
      <stop
         style="stop-color:#ff0000;stop-opacity:0.64628822"
         offset="1"
         id="stop7-4" />
    </linearGradient>
    <radialGradient
       inkscape:collect="always"
       xlink:href="#l1"
       id="radialGradient5721"
       cx="17.661133"
       cy="4.7971997"
       fx="17.661133"
       fy="4.7971997"
       r="1.7783215"
       gradientTransform="matrix(1.8001299,0,0,1.8106739,-23.792348,-1.0869783)"
       gradientUnits="userSpaceOnUse" />
  </defs>
  <sodipodi:namedview
     pagecolor="#ffffff"
     bordercolor="#666666"
     borderopacity="1"
     objecttolerance="10"
     gridtolerance="10"
     guidetolerance="10"
     inkscape:pageopacity="0"
     inkscape:pageshadow="2"
     inkscape:window-width="1920"
     inkscape:window-height="1004"
     id="namedview11"
     showgrid="true"
     inkscape:zoom="32"
     inkscape:cx="11.559939"
     inkscape:cy="8.8216722"
     inkscape:window-x="1680"
     inkscape:window-y="0"
     inkscape:window-maximized="1"
     inkscape:current-layer="svg2"
     showguides="false"
     inkscape:snap-global="false">
    <sodipodi:guide
       position="0,0"
       orientation="0,580"
       id="guide2989" />
    <sodipodi:guide
       position="580,0"
       orientation="-580,0"
       id="guide2991" />
    <sodipodi:guide
       position="580,580"
       orientation="0,-580"
       id="guide2993" />
    <sodipodi:guide
       position="0,580"
       orientation="580,0"
       id="guide2995" />
    <sodipodi:guide
       position="0,0"
       orientation="0,580"
       id="guide2997" />
    <sodipodi:guide
       position="580,0"
       orientation="-580,0"
       id="guide2999" />
    <sodipodi:guide
       position="580,580"
       orientation="0,-580"
       id="guide3001" />
    <sodipodi:guide
       position="0,580"
       orientation="580,0"
       id="guide3003" />
    <inkscape:grid
       type="xygrid"
       id="grid3013"
       empspacing="5"
       visible="true"
       enabled="true"
       snapvisiblegridlinesonly="true" />
  </sodipodi:namedview>
  <metadata
     id="metadata2975">image/svg+xmlen<rdf:RDF>
  <cc:Work
     rdf:about="">
    <dc:format>image/svg+xml</dc:format>
    <dc:type
       rdf:resource="http://purl.org/dc/dcmitype/StillImage" />
    <dc:title />
  </cc:Work>
</rdf:RDF>
</metadata>
  <g
     transform="matrix(0.0771056,0,0,0.0771056,4.3889138,4.3889138)"
     id="g11" />
  <g
     transform="matrix(0.0771056,0,0,0.0771056,4.3889138,4.3889138)"
     id="g13" />
  <g
     transform="matrix(0.0771056,0,0,0.0771056,4.3889138,4.3889138)"
     id="g15" />
  <g
     transform="matrix(0.0771056,0,0,0.0771056,4.3889138,4.3889138)"
     id="g17" />
  <g
     transform="matrix(0.0771056,0,0,0.0771056,4.3889138,4.3889138)"
     id="g19" />
  <g
     transform="matrix(0.0771056,0,0,0.0771056,4.3889138,4.3889138)"
     id="g21" />
  <g
     transform="matrix(0.0771056,0,0,0.0771056,4.3889138,4.3889138)"
     id="g23" />
  <g
     transform="matrix(0.0771056,0,0,0.0771056,4.3889138,4.3889138)"
     id="g25" />
  <g
     transform="matrix(0.0771056,0,0,0.0771056,4.3889138,4.3889138)"
     id="g27" />
  <g
     transform="matrix(0.0771056,0,0,0.0771056,4.3889138,4.3889138)"
     id="g29" />
  <g
     transform="matrix(0.0771056,0,0,0.0771056,4.3889138,4.3889138)"
     id="g31" />
  <g
     transform="matrix(0.0771056,0,0,0.0771056,4.3889138,4.3889138)"
     id="g33" />
  <g
     transform="matrix(0.0771056,0,0,0.0771056,4.3889138,4.3889138)"
     id="g35" />
  <g
     transform="matrix(0.0771056,0,0,0.0771056,4.3889138,4.3889138)"
     id="g37" />
  <g
     transform="matrix(0.0771056,0,0,0.0771056,4.3889138,4.3889138)"
     id="g39" />
  <path
     style="opacity:1;fill:#fefefe;fill-opacity:1;fill-rule:nonzero"
     d="M 7.9648438,3.9140625 5.3808594,3.921875 C 5.3140769,3.922222 5.248144,3.9368737 5.1875,3.9648438 l -0.1523438,0.070312 -0.00195,0 C 4.7932332,4.1474021 4.5720626,4.354296 4.453125,4.578125 l -0.00195,0.00195 -0.066406,0.1269531 c -0.034819,0.06695 -0.052912,0.1413342 -0.052734,0.2167969 l 0,2.6328125 0,2.6367185 c -1.01e-4,0.05953 0.011169,0.118528 0.033203,0.173829 l 0.056641,0.140624 0,0.002 c 0.1524057,0.37642 0.4929193,0.661362 0.8925781,0.740234 0.029627,0.0055 0.059715,0.0081 0.089844,0.0078 1.218484,0 1.2066528,-0.0024 1.5058593,-0.0039 0.2082823,0.455126 0.5901102,0.834186 1.0957032,0.833985 0.5064785,2.02e-4 0.8899345,-0.379619 1.0976562,-0.835938 0.3487965,-0.0015 0.825048,-0.0039 1.5625002,-0.0039 0.03078,4.29e-4 0.06153,-0.0022 0.0918,-0.0078 0.47434,-0.09401 0.718297,-0.458431 0.828126,-0.751953 0.01451,-0.03878 0.04511,-0.138054 0.05664,-0.232422 0.01153,-0.09437 0.01622,-0.197771 0.01953,-0.3730466 0.0066,-0.3505513 0.0059,-0.9875663 0.0059,-2.2597656 0,-2.2562084 0.03686,-2.4962484 -0.05859,-2.8183594 C 11.495967,4.4228438 11.206327,4.090893 10.824219,3.9707031 10.51917,3.8747344 10.291322,3.9079048 7.9648438,3.9140625 Z"
     id="path5761"
     inkscape:connector-curvature="0"
     sodipodi:nodetypes="ccccccccccccccccccccccscsccc" />
  <path
     style="opacity:1;fill:url(#radialGradient5721);fill-opacity:1;fill-rule:nonzero"
     d="m 7.9665841,4.381572 -2.584171,0.00704 -0.151175,0.070318 C 5.0438932,4.5465575 4.9536131,4.6307964 4.8655868,4.7964533 l -0.066802,0.1265704 0,2.6333931 0,2.6369092 0.056254,0.140635 c 0.097945,0.24191 0.2956101,0.407161 0.5484779,0.457064 4.2607815,0 2.7802719,-0.01057 5.2632743,-0.01057 0.251513,-0.04985 0.412621,-0.272508 0.481675,-0.457063 0.05416,-0.144783 0.05275,-0.155622 0.05275,-2.7001952 0,-2.2557244 -0.0031,-2.5661276 -0.03867,-2.6861314 -0.0796,-0.2680428 -0.243769,-0.4465981 -0.47816,-0.5203243 -0.118334,-0.037228 -0.39194,-0.041315 -2.7177741,-0.035159 z M 7.1298046,5.5488438 c 0.1311755,0.0079 0.2613482,0.036181 0.35862,0.080865 0.1581955,0.072668 0.3725118,0.2534455 0.4570638,0.3902627 l 0.052744,0.087897 0.077352,-0.1160238 C 8.1732772,5.8443548 8.3120507,5.7271323 8.4974892,5.6332251 8.633435,5.5643803 8.6638573,5.5593906 8.9229104,5.5593906 c 0.2581585,0 0.2924041,0.00508 0.4324524,0.073834 0.2733641,0.1342176 0.477767,0.3725435 0.5590249,0.6504374 0.03395,0.1161088 0.038667,0.3015688 0.038667,1.1532083 l 0,1.0125731 -0.5133178,-0.00704 -0.5168353,-0.00704 -0.00703,-0.8649063 c -0.00667,-0.8461642 -0.00594,-0.8638349 -0.059764,-0.9211603 -0.073121,-0.077834 -0.1976021,-0.077834 -0.2707234,0 -0.053806,0.057325 -0.056812,0.074997 -0.063293,0.9211603 l -0.00703,0.8649063 -0.5133196,0.00704 -0.5168335,0.00704 -0.00703,-0.8824855 -0.00703,-0.8789697 -0.059764,-0.049222 c -0.083663,-0.067737 -0.194839,-0.061793 -0.2706964,0.014059 l -0.063293,0.063285 0,0.8649063 0,0.868422 -0.5238667,0 -0.5238665,0 0.010624,-1.0512477 C 6.047734,6.3891178 6.0502611,6.3433378 6.103291,6.2133397 6.2240439,5.9175403 6.4714499,5.6812007 6.7677909,5.5839972 6.8677703,5.551202 6.998744,5.5409312 7.1299267,5.5488386 Z m 1.5294083,3.0974891 c 0.089161,10e-8 0.1569173,0.025512 0.2074362,0.077349 0.050512,0.051839 0.077352,0.1231241 0.077352,0.2144686 0,0.091093 -0.02684,0.1626309 -0.077352,0.2144685 -0.050512,0.051839 -0.1182685,0.077349 -0.2074362,0.077349 -0.088908,0 -0.1601755,-0.025512 -0.2109536,-0.077349 -0.050512,-0.051839 -0.073841,-0.1233755 -0.073841,-0.2144685 0,-0.091346 0.02333,-0.1626309 0.073841,-0.2144686 0.050763,-0.051839 0.1220487,-0.077349 0.2109536,-0.077349 z m 1.0934386,0 c 0.02774,0 0.055606,0.00226 0.084372,0.00704 0.028784,0.00477 0.057784,0.011526 0.087901,0.021096 l 0,0.073835 c -0.030369,-0.013844 -0.057442,-0.024849 -0.084372,-0.031643 -0.026948,-0.00678 -0.055768,-0.00704 -0.080861,-0.00704 -0.043582,0 -0.07467,0.00499 -0.098449,0.021096 -0.02351,0.016111 -0.035156,0.040625 -0.035156,0.070318 0,0.024912 0.00558,0.043421 0.021097,0.056255 0.015841,0.012584 0.047577,0.023842 0.091411,0.031643 l 0.049216,0.00704 c 0.059692,0.010817 0.1018334,0.032347 0.1300954,0.059769 0.028531,0.027176 0.042194,0.063194 0.042194,0.108993 0,0.054607 -0.01764,0.094872 -0.056254,0.1230544 -0.038289,0.028183 -0.094542,0.042189 -0.1687623,0.042189 -0.027992,0 -0.05971,-9.834e-4 -0.091411,-0.00704 -0.031412,-0.00605 -0.064625,-0.016309 -0.098449,-0.028127 l 0,-0.077349 c 0.032492,0.017371 0.067271,0.029866 0.098449,0.038675 0.03116,0.00881 0.061294,0.014059 0.091411,0.014059 0.045687,0 0.080664,-0.011011 0.1054694,-0.028127 0.024823,-0.01712 0.035156,-0.038609 0.035156,-0.070319 0,-0.02768 -0.00667,-0.051202 -0.024608,-0.066801 -0.017642,-0.015607 -0.047218,-0.027358 -0.087901,-0.035159 l -0.049216,-0.010547 c -0.059692,-0.01132 -0.103418,-0.028586 -0.1300954,-0.052739 -0.026677,-0.024158 -0.038667,-0.055415 -0.038667,-0.098444 0,-0.049825 0.016021,-0.090852 0.052744,-0.1195398 0.036975,-0.028687 0.090006,-0.042189 0.1546851,-0.042185 z m -3.730348,0.010547 0.1828248,0 0.1265665,0.3023656 0.1265678,-0.3023656 0.1828248,0 0,0.5625405 -0.1371159,0 0,-0.4113577 -0.1265666,0.3023656 -0.091411,0 -0.1265665,-0.3023656 0,0.4113577 -0.1371159,0 z m 0.7594297,0 0.3867471,0 0,0.108993 -0.2461119,0 0,0.105477 0.2285319,0 0,0.1089931 -0.2285319,0 0,0.1300882 0.2531433,0 0,0.1089917 -0.3937785,0 z m 0.4535482,0 0.5098022,0 0,0.108993 -0.1828248,0 0,0.4535483 -0.1441544,0 0,-0.4535483 -0.1828266,0 z m 0.5836363,0 0.2179849,0 c 0.073049,0 0.1278094,0.010237 0.1617237,0.035158 0.034185,0.024912 0.049216,0.065689 0.049216,0.1195397 0,0.037243 -0.00685,0.067507 -0.024608,0.091413 -0.017642,0.023905 -0.045201,0.041413 -0.080861,0.052739 0.019567,0.00451 0.037371,0.015535 0.052744,0.031643 0.015661,0.015859 0.029847,0.04137 0.045705,0.073834 l 0.080861,0.1582152 -0.154703,0 -0.066802,-0.1406351 C 8.0864967,9.0506032 8.0720962,9.0328505 8.057982,9.0225321 8.0441205,9.0122175 8.0250036,9.0049444 8.0017275,9.0049444 l -0.038667,0 0,0.2144685 -0.1441544,0 z m 1.2094623,0 0.2039205,0 c 0.061007,0 0.1076122,0.010998 0.1406442,0.035158 0.033014,0.024158 0.049216,0.05742 0.049216,0.1019611 0,0.034474 -0.00774,0.063998 -0.024608,0.084381 -0.016921,0.020383 -0.041097,0.033642 -0.073841,0.038675 0.039352,0.00805 0.069755,0.023555 0.091411,0.049222 0.021925,0.025417 0.031646,0.056679 0.031646,0.094928 0,0.050327 -0.016741,0.088595 -0.052744,0.1160237 -0.035913,0.027429 -0.084894,0.042189 -0.1511748,0.042189 l -0.2144675,0 z m 0.080861,0.063285 0,0.1687622 0.1195462,0 c 0.039081,0 0.065362,-0.00726 0.084372,-0.021096 0.019279,-0.014095 0.031647,-0.034599 0.031647,-0.063285 0,-0.028435 -0.012416,-0.049194 -0.031647,-0.063285 -0.019028,-0.014095 -0.045291,-0.021096 -0.084372,-0.021096 z m -0.4500319,0.031645 c -0.043582,0 -0.077928,0.016507 -0.1019598,0.049223 -0.024032,0.032714 -0.035157,0.077732 -0.035157,0.1371195 0,0.059136 0.011166,0.1044056 0.035157,0.1371195 0.024032,0.032714 0.058378,0.049223 0.1019598,0.049223 0.043833,0 0.077928,-0.016507 0.1019597,-0.049223 0.024032,-0.032714 0.035156,-0.077984 0.035156,-0.1371195 0,-0.059386 -0.011166,-0.1044056 -0.035156,-0.1371195 -0.024014,-0.032714 -0.058109,-0.049223 -0.1019597,-0.049223 z m -0.6961444,0.010547 0,0.1441508 0.059764,0 c 0.029972,0 0.050404,-0.00624 0.063293,-0.017588 0.013141,-0.01132 0.021097,-0.030342 0.021097,-0.056254 0,-0.025667 -0.00792,-0.041666 -0.021097,-0.052739 -0.012962,-0.011075 -0.03332,-0.017588 -0.063293,-0.017588 z m 1.1461769,0.1898574 0,0.2039211 0.1265678,0 c 0.043042,0 0.077838,-0.00776 0.098449,-0.024612 0.020864,-0.01712 0.028136,-0.042371 0.028136,-0.077349 0,-0.035231 -0.00719,-0.060741 -0.028136,-0.07735 -0.020593,-0.016867 -0.055389,-0.024612 -0.098449,-0.024612 z"
     id="path4207"
     inkscape:connector-curvature="0"
     sodipodi:nodetypes="sccccccccccscccscccccssssccccccccccccccccccccsssscssscscssscccscsccccscscccsscsccccscscccccccccccccccccccccccccccccscccccccsssccccccccscccccscssccscsccccscscscsscsscscsccccscscccccscscsc" />
  <circle
     style="color:#000000;clip-rule:nonzero;display:inline;overflow:visible;visibility:visible;opacity:1;isolation:auto;mix-blend-mode:normal;color-interpolation:sRGB;color-interpolation-filters:linearRGB;solid-color:#000000;solid-opacity:1;fill:#f9890f;fill-opacity:1;fill-rule:nonzero;stroke:none;stroke-width:1;stroke-linecap:butt;stroke-linejoin:miter;stroke-miterlimit:4;stroke-dasharray:none;stroke-dashoffset:0;stroke-opacity:1;marker:none;color-rendering:auto;image-rendering:auto;shape-rendering:auto;text-rendering:auto;enable-background:accumulate"
     id="path5731"
     cx="8.0052586"
     cy="10.791019"
     r="0.82974738" />
</svg>

<svg width="16" height="16" viewBox="0 0 16 16" fill="none" xmlns="http://www.w3.org/2000/svg">
<path d="M7.96484 3.91405L5.38086 3.92186C5.31407 3.92221 5.24814 3.93686 5.1875 3.96483L5.03515 4.03514H5.0332C4.79323 4.14739 4.57206 4.35428 4.45312 4.57811L4.45117 4.58006L4.38477 4.70702C4.34995 4.77397 4.33185 4.84835 4.33203 4.92381V7.55663V10.1933C4.33193 10.2529 4.3432 10.3119 4.36524 10.3672L4.42188 10.5078V10.5098C4.57428 10.8862 4.9148 11.1712 5.31445 11.25C5.34408 11.2555 5.37417 11.2581 5.4043 11.2578C6.62278 11.2578 6.61095 11.2554 6.91016 11.2539C7.11844 11.7091 7.50027 12.0881 8.00586 12.0879C8.51234 12.0881 8.8958 11.7083 9.10352 11.252C9.45231 11.2505 9.92857 11.2481 10.666 11.2481C10.6968 11.2485 10.7275 11.2459 10.7578 11.2403C11.2322 11.1463 11.4761 10.7818 11.5859 10.4883C11.6005 10.4495 11.6311 10.3503 11.6426 10.2559C11.6541 10.1615 11.6588 10.0581 11.6621 9.88286C11.6687 9.53231 11.668 8.89529 11.668 7.62309C11.668 5.36688 11.7049 5.12684 11.6094 4.80473C11.496 4.42283 11.2063 4.09088 10.8242 3.97069C10.5192 3.87472 10.2913 3.90789 7.96484 3.91405Z" fill="#FEFEFE"/>
<path d="M7.96657 4.38158L5.3824 4.38862L5.23122 4.45894C5.04388 4.54656 4.9536 4.6308 4.86557 4.79646L4.79877 4.92303V7.55642V10.1933L4.85502 10.334C4.95297 10.5759 5.15063 10.7411 5.4035 10.791C9.66428 10.791 8.18377 10.7805 10.6668 10.7805C10.9183 10.7306 11.0794 10.508 11.1484 10.3234C11.2026 10.1786 11.2012 10.1678 11.2012 7.6232C11.2012 5.36748 11.1981 5.05708 11.1625 4.93707C11.0829 4.66903 10.9188 4.49047 10.6844 4.41675C10.566 4.37952 10.2924 4.37543 7.96659 4.38159L7.96657 4.38158ZM7.12979 5.54885C7.26096 5.55675 7.39114 5.58503 7.48841 5.62971C7.6466 5.70238 7.86092 5.88316 7.94547 6.01998L7.99821 6.10787L8.07557 5.99185C8.17326 5.84436 8.31203 5.72714 8.49747 5.63323C8.63342 5.56439 8.66384 5.5594 8.92289 5.5594C9.18105 5.5594 9.2153 5.56448 9.35535 5.63323C9.62871 5.76745 9.83311 6.00577 9.91437 6.28367C9.94832 6.39978 9.95304 6.58524 9.95304 7.43688V8.44945L9.43972 8.44241L8.92288 8.43537L8.91585 7.57046C8.90918 6.7243 8.90991 6.70663 8.85609 6.6493C8.78297 6.57147 8.65849 6.57147 8.58537 6.6493C8.53156 6.70663 8.52855 6.7243 8.52207 7.57046L8.51504 8.43537L8.00172 8.44241L7.48489 8.44945L7.47786 7.56696L7.47083 6.68799L7.41107 6.63877C7.3274 6.57104 7.21623 6.57698 7.14037 6.65283L7.07708 6.71612V7.58102V8.44944H6.55321H6.02934L6.03997 7.3982C6.04772 6.38912 6.05024 6.34334 6.10327 6.21335C6.22403 5.91755 6.47143 5.68121 6.76777 5.584C6.86775 5.55121 6.99873 5.54094 7.12991 5.54884L7.12979 5.54885ZM8.6592 8.64634C8.74836 8.64634 8.81611 8.67185 8.86663 8.72369C8.91714 8.77553 8.94398 8.84681 8.94398 8.93816C8.94398 9.02925 8.91714 9.10079 8.86663 9.15263C8.81612 9.20446 8.74836 9.22997 8.6592 9.22997C8.57029 9.22997 8.49902 9.20446 8.44824 9.15263C8.39773 9.10079 8.3744 9.02925 8.3744 8.93816C8.3744 8.84681 8.39773 8.77552 8.44824 8.72369C8.499 8.67185 8.57029 8.64634 8.6592 8.64634ZM9.75263 8.64634C9.78037 8.64634 9.80824 8.6486 9.83701 8.65338C9.86579 8.65815 9.89479 8.6649 9.92491 8.67447V8.74831C9.89454 8.73447 9.86746 8.72346 9.84053 8.71667C9.81359 8.70989 9.78477 8.70963 9.75967 8.70963C9.71609 8.70963 9.685 8.71462 9.66122 8.73072C9.63771 8.74683 9.62607 8.77135 9.62607 8.80104C9.62607 8.82595 9.63165 8.84446 9.64717 8.8573C9.66301 8.86988 9.69474 8.88114 9.73858 8.88894L9.78779 8.89598C9.84748 8.9068 9.88963 8.92833 9.91789 8.95575C9.94642 8.98292 9.96008 9.01894 9.96008 9.06474C9.96008 9.11935 9.94244 9.15961 9.90383 9.18779C9.86554 9.21598 9.80929 9.22998 9.73507 9.22998C9.70707 9.22998 9.67536 9.229 9.64366 9.22294C9.61224 9.21689 9.57903 9.20663 9.54521 9.19482V9.11747C9.5777 9.13484 9.61248 9.14733 9.64366 9.15614C9.67482 9.16495 9.70495 9.1702 9.73507 9.1702C9.78075 9.1702 9.81573 9.15919 9.84054 9.14207C9.86536 9.12495 9.87569 9.10347 9.87569 9.07176C9.87569 9.04408 9.86902 9.02055 9.85108 9.00496C9.83344 8.98935 9.80387 8.9776 9.76318 8.9698L9.71397 8.95925C9.65427 8.94793 9.61055 8.93066 9.58387 8.90651C9.55719 8.88235 9.5452 8.8511 9.5452 8.80807C9.5452 8.75824 9.56122 8.71721 9.59795 8.68853C9.63492 8.65984 9.68795 8.64634 9.75263 8.64634L9.75263 8.64634ZM6.02229 8.65689H6.20511L6.33168 8.95925L6.45824 8.65689H6.64107V9.21943H6.50395V8.80807L6.37739 9.11043H6.28598L6.15941 8.80807V9.21943H6.02229L6.02229 8.65689ZM6.78172 8.65689H7.16846V8.76588H6.92235V8.87136H7.15088V8.98035H6.92235V9.11044H7.17549V9.21943H6.78172V8.65689ZM7.23526 8.65689H7.74507V8.76588H7.56224V9.21943H7.41809V8.76588H7.23526L7.23526 8.65689ZM7.8189 8.65689H8.03688C8.10993 8.65689 8.16469 8.66712 8.19861 8.69204C8.23279 8.71696 8.24782 8.75773 8.24782 8.81158C8.24782 8.84883 8.24097 8.87909 8.22322 8.903C8.20557 8.9269 8.17802 8.94441 8.14236 8.95574C8.16192 8.96025 8.17973 8.97127 8.1951 8.98738C8.21076 9.00324 8.22495 9.02875 8.2408 9.06121L8.32167 9.21943H8.16696L8.10016 9.07879C8.08648 9.05061 8.07208 9.03286 8.05796 9.02254C8.0441 9.01222 8.02499 9.00495 8.00171 9.00495H7.96304V9.21942H7.81889L7.8189 8.65689ZM9.02836 8.65689H9.23228C9.29329 8.65689 9.3399 8.66788 9.37293 8.69204C9.40594 8.7162 9.42214 8.74946 9.42214 8.794C9.42214 8.82848 9.4144 8.858 9.39753 8.87839C9.38061 8.89877 9.35644 8.91203 9.32369 8.91706C9.36305 8.92511 9.39345 8.94062 9.41511 8.96628C9.43703 8.9917 9.44675 9.02296 9.44675 9.06121C9.44675 9.11154 9.43001 9.14981 9.39401 9.17723C9.35809 9.20466 9.30911 9.21942 9.24283 9.21942H9.02836L9.02836 8.65689ZM9.10922 8.72017V8.88893H9.22877C9.26785 8.88893 9.29413 8.88167 9.31314 8.86784C9.33242 8.85374 9.34479 8.83324 9.34479 8.80455C9.34479 8.77612 9.33237 8.75536 9.31314 8.74127C9.29411 8.72717 9.26785 8.72017 9.22877 8.72017H9.10922ZM8.65919 8.75182C8.61561 8.75182 8.58126 8.76832 8.55723 8.80104C8.5332 8.83375 8.52207 8.87877 8.52207 8.93816C8.52207 8.99729 8.53324 9.04256 8.55723 9.07528C8.58126 9.10799 8.61561 9.1245 8.65919 9.1245C8.70302 9.1245 8.73712 9.10799 8.76115 9.07528C8.78518 9.04256 8.79631 8.99729 8.79631 8.93816C8.79631 8.87877 8.78514 8.83375 8.76115 8.80104C8.73714 8.76832 8.70304 8.75182 8.65919 8.75182ZM7.96305 8.76236V8.90651H8.02281C8.05278 8.90651 8.07321 8.90027 8.0861 8.88893C8.09924 8.87761 8.1072 8.85858 8.1072 8.83267C8.1072 8.807 8.09928 8.79101 8.0861 8.77993C8.07314 8.76886 8.05278 8.76234 8.02281 8.76234L7.96305 8.76236ZM9.10922 8.95222V9.15614H9.23579C9.27883 9.15614 9.31363 9.14838 9.33424 9.13153C9.3551 9.11441 9.36238 9.08916 9.36238 9.05418C9.36238 9.01895 9.35519 8.99344 9.33424 8.97683C9.31365 8.95996 9.27885 8.95222 9.23579 8.95222L9.10922 8.95222Z" fill="url(#paint0_radial)"/>
<path d="M8.00528 11.6208C8.46354 11.6208 8.83503 11.2493 8.83503 10.791C8.83503 10.3328 8.46354 9.96127 8.00528 9.96127C7.54703 9.96127 7.17554 10.3328 7.17554 10.791C7.17554 11.2493 7.54703 11.6208 8.00528 11.6208Z" fill="#F9890F"/>
<defs>
<radialGradient id="paint0_radial" cx="0" cy="0" r="1" gradientUnits="userSpaceOnUse" gradientTransform="translate(7.99997 7.59919) scale(3.20121 3.21996)">
<stop stop-color="#000E28"/>
<stop offset="1" stop-color="#008CB9"/>
</radialGradient>
</defs>
</svg>
